static/logos/jordan-glyph-white.svg

<svg width="70" height="64" viewBox="0 0 70 64" fill="none" xmlns="http://www.w3.org/2000/svg">
<g clip-path="url(#clip0_1204_224)">
<path d="M37.7711 4.36217C37.7448 4.22003 37.7268 4.07648 37.7171 3.93224C37.5765 1.90747 39.1007 0.151706 41.1252 0.00906054C43.1519 -0.132155 44.9071 1.39406 45.0486 3.41883C45.1901 5.44359 43.6653 7.19936 41.6409 7.342C41.5124 7.35153 41.3861 7.35372 41.2618 7.34858C41.1798 7.36973 41.1306 7.37974 41.06 7.44205C40.8516 7.76679 41.59 7.70619 41.088 9.1255C41.088 9.1255 41.0846 9.28129 41.0288 9.43709C40.9894 9.98194 40.7798 11.5965 40.7498 12.4564C40.8565 12.581 40.8865 12.6416 40.8748 12.9438C40.8273 13.3523 40.7335 14.3533 40.5829 14.9948C40.4551 15.5445 40.2307 15.6494 40.0498 15.7841C39.7953 16.923 39.7282 17.8663 39.0755 19.2496C39.0164 20.2981 38.9426 20.5837 38.7228 21.0957C38.6982 22.6396 38.8048 22.8695 37.7631 25.3142C37.4941 26.4576 37.75 27.2486 38.0339 28.4366C38.3243 29.6576 39.1299 30.1678 39.2496 31.4182C39.5318 34.3629 39.4612 36.3676 38.8294 38.6765L39.3808 39.9823C40.0652 40.2962 41.7632 41.1544 40.8216 42.5128C42.1477 43.2097 44.1507 43.9498 45.803 45.3631C46.4677 45.9165 47.1697 46.52 47.7998 47.2284C48.9992 47.4153 48.8712 47.5105 49.7602 48.0568C52.3744 49.6596 56.5666 52.8393 58.9967 55.0904C59.4152 55.3349 59.5859 55.5109 59.9238 55.6882C59.9766 55.7894 59.9909 55.8128 59.9792 55.8403C59.8632 56.1341 59.8675 56.1427 59.7625 56.3768C59.8938 56.5218 60.1382 56.6573 60.2842 56.7842C60.4209 56.8268 60.4209 56.7613 60.6553 56.7039C60.9603 56.9894 61.3382 57.2195 61.4737 57.2061C61.8874 57.1012 61.8167 57.1867 62.1664 56.7956C62.2921 56.6661 62.5028 56.7973 62.5028 56.7973C62.634 56.6432 62.9162 56.3362 63.2924 56.1144C63.5925 55.9375 64.1654 55.9177 64.1654 55.9177C64.3572 55.9194 64.3212 56.1161 64.3046 56.1802C64.0879 56.2919 63.6288 56.4148 63.371 56.6049C62.8095 57.1855 62.3699 57.9688 62.3699 57.9688C63.5002 57.8144 64.1945 58.0949 65.1365 57.9868C65.6502 57.9571 66.0292 57.9902 66.5686 57.5997C66.5686 57.5997 67.0872 57.2307 67.5517 57.0349C68.0028 56.8382 68.431 56.9431 68.8281 57.2316C69.1085 57.548 69.2775 57.5497 68.851 57.9965C68.6969 58.17 68.4736 58.3639 68.19 58.6446C67.6912 59.1374 67.0197 59.7943 66.3245 60.338C65.6204 60.8877 64.8214 61.3814 64.3226 61.6078C63.0642 62.512 63.3613 62.2756 62.3719 63.1718C62.247 63.2835 61.9157 63.4834 61.755 63.59C61.3648 63.8461 61.243 63.6326 60.9886 63.1635C60.9886 63.1635 60.8723 62.9882 60.6802 62.6138C60.4703 62.2053 60.3128 61.7382 60.3766 61.7459C60.1422 61.7162 59.0868 60.4789 59.0842 60.2137C58.8609 60.1625 57.909 59.2409 57.875 59.0648L57.0317 58.3887C56.0669 58.5891 55.8457 57.9899 53.2975 56.1819C53.0068 56.1767 52.5577 56.0198 51.9139 55.5424C50.7642 54.6213 48.0056 52.5377 47.5379 52.2996C47.0357 52.0437 46.4356 51.8027 46.0674 51.4989C45.516 51.3974 45.2144 51.3396 44.9386 51.2627C44.6567 51.1856 44.4003 51.0858 43.6868 50.9903C42.5253 50.846 41.3207 50.3651 40.1738 49.7911C39.631 49.5339 39.1582 49.4026 38.6908 49.2017C37.6422 48.7589 36.7432 48.3601 36.0465 48.1992C35.7807 48.1729 34.5172 47.7938 33.8546 47.407C33.6247 47.2887 33.4918 47.1755 33.3409 47.1409C32.993 47.0609 32.7697 47.1984 32.6125 47.2512C31.7626 47.694 30.9668 48.0765 30.2315 48.4722C29.5472 48.8381 28.9171 49.2183 28.2494 49.6027C27.6471 49.9506 26.9513 50.2785 26.236 50.6201C26.236 50.6201 24.1964 51.6424 23.0824 52.0397C22.1159 52.8287 20.1403 54.1937 18.9345 54.8698C18.3374 55.1536 17.1773 55.8886 16.6422 56.0529C16.3369 56.2988 15.2492 57.0749 14.3976 57.7149C13.7396 58.2072 13.2424 58.6223 13.2424 58.6223C12.8602 58.965 12.8863 59.1277 12.1596 58.8189C11.9578 58.9847 11.802 59.0879 11.6722 59.1831C11.1474 59.5639 11.1028 59.4721 10.911 59.4621C10.5451 59.7789 10.499 59.6151 10.1791 59.9795C9.96904 60.3049 10.184 60.2271 9.74092 60.3849C9.64744 60.4209 9.60313 60.5338 9.5311 60.5964C9.17491 60.8897 9.17348 61.7187 8.32018 61.7779C7.82621 62.1304 7.95257 62.556 7.57523 62.5374C7.59838 62.9031 6.90745 63.4368 6.78282 63.4351C5.69482 63.8104 5.61936 63.0105 4.31325 63.6074C4.14431 63.6849 3.89646 63.8984 3.57001 63.9602C2.99571 64.0685 2.30164 63.955 1.87828 63.6271C1.21193 63.1135 0.598471 62.1224 0.598471 62.1224C0.386647 61.6218 0.509854 61.3054 1.17105 60.8323C1.44662 60.657 1.49751 60.5258 1.96032 60.4941C2.19015 60.4072 2.12755 60.5401 2.53805 60.3929C2.77588 60.3074 2.77588 60.3683 3.25499 60.3274C3.36476 60.2534 3.51913 60.2271 3.72581 60.1599C4.10486 60.035 4.47419 59.8958 4.47419 59.8958C4.47419 59.8958 4.57081 59.7989 4.93529 59.8335C5.24373 59.7071 5.56047 59.5196 5.72284 59.4621C5.68168 58.9736 5.73427 58.9965 5.96068 58.7998C6.24282 58.5565 6.29371 58.5963 6.50381 58.7469C6.59243 58.6957 6.63503 58.6783 6.62531 58.604C6.59072 58.3496 6.3726 58.2298 6.43835 57.6689C6.34144 57.4442 6.1988 57.1669 6.22996 56.9994C6.27598 56.8188 6.32029 56.7316 6.43006 56.6741C6.54669 56.6121 6.58443 56.6958 6.64675 56.7659C6.75823 56.8957 6.84857 57.2799 6.84857 57.2799C6.88801 57.7132 7.02237 58.2744 7.45059 57.9576C7.70329 57.7015 7.75246 57.0192 8.26759 57.1652L8.6352 57.4848C8.94708 57.1915 8.96194 57.1915 9.1489 57.0735C9.1489 57.0735 8.85675 56.7782 9.11288 56.5483C9.2884 56.3923 9.49994 56.2805 9.87585 55.864C10.9078 54.7237 11.4378 54.2197 12.5538 53.3007C14.7804 51.4694 17.3137 50.185 18.9234 49.5464C19.4482 48.8801 19.9588 48.4373 21.1237 48.3255C22.5084 45.9872 25.16 43.8989 25.7689 43.5659C26.2643 42.668 26.4793 42.7635 27.1274 42.5831C27.6408 42.1715 27.7574 42.1715 27.9872 41.7415C28.2105 40.8542 27.4721 38.483 29.3571 38.3632C29.7576 37.7975 29.6575 37.9333 30.1038 37.3984C29.8019 36.6535 29.6772 36.0303 29.5952 35.4934C29.5803 35.4311 28.8471 34.9143 29.0552 34.2396C28.7436 33.8689 28.161 33.0036 27.9789 32.5982C27.8955 32.5999 27.8263 32.5685 27.7345 32.5559C27.6393 32.5408 27.521 32.5462 27.3883 32.5348C27.0948 33.2923 26.7749 33.3486 26.2529 33.5158C25.321 35.502 24.9928 36.3427 22.356 37.9847C21.3092 39.1568 20.9745 40.4626 20.9793 40.4431C20.7989 40.8302 20.8627 41.3719 20.9579 41.6623C20.8201 42.0923 20.8561 42.1349 20.8561 42.1349C20.9136 42.2972 21.0631 42.5122 21.2466 42.558C21.5633 42.6417 21.8801 42.6283 21.8618 42.981C21.8192 43.4224 21.24 43.3501 20.9659 43.3009C19.9108 43.1334 20.2441 42.4459 19.5694 42.6754C19.0526 43.0136 18.8591 44.0113 18.0155 43.8818C17.904 43.808 17.9383 43.5899 18.0138 43.4324C18.1321 43.1863 18.3419 42.9827 18.2173 42.8904C17.6672 43.0665 17.1181 43.2455 16.5699 43.4273C16.053 43.5682 15.4868 43.3106 15.9956 42.9707C16.232 42.879 16.5699 42.7638 16.9867 42.4968C16.9867 42.4968 17.2014 42.2046 16.7897 42.3507C16.3401 42.5114 15.6771 42.6114 15.2015 42.5591C15.2015 42.5591 14.2152 42.4296 14.0889 42.3521C13.9608 42.2747 13.8445 41.9699 14.1529 41.9716C14.5434 41.9751 15.5213 41.8599 16.2794 41.6581C16.6454 41.5154 17.3411 41.1038 17.7316 40.91C17.7316 40.91 18.155 40.2931 18.388 40.1716C18.7767 39.7239 19.1049 39.4595 19.4494 39.0015C19.7858 38.3072 20.1337 37.2083 21.2477 35.5066C21.7629 34.7222 22.4029 33.8086 23.2085 32.9916C23.2085 32.9916 23.4169 31.684 24.4654 30.7536C24.697 30.2087 25.048 29.5672 25.3942 28.9732C25.5288 28.7451 25.6566 28.5467 25.7847 28.33C26.1097 27.8197 26.451 26.8698 27.7177 26.7203C27.7177 26.7203 28.2591 26.3201 28.4675 26.0357C28.7925 25.7584 28.7185 25.327 28.9826 25.0232C28.579 24.6295 27.547 23.8894 27.4467 22.8606C27.34 21.7695 27.7288 20.8719 28.3886 20.2075C29.1204 19.4757 29.8916 19.1098 30.8284 19.1656C31.9982 19.3394 32.2197 19.7267 32.5922 20.1106C32.9498 20.4748 33.0827 20.2404 33.2337 20.6669C34.215 20.9279 34.1607 20.813 34.1524 21.5351C34.3034 21.7383 34.5561 21.9273 34.5526 22.3489C34.8825 21.6646 34.948 21.5385 35.8293 20.7853C36.0377 20.1732 36.1792 19.5712 36.3621 18.9592C36.5339 18.3932 36.7475 17.8106 36.913 17.3723C36.7375 16.1351 37.0979 15.9302 37.579 14.8456C37.4939 14.6964 37.5122 14.6538 37.5482 14.4091C37.7351 13.6921 38.0273 12.7437 38.2011 12.1251C38.2011 12.1251 38.2585 11.8789 38.513 11.8609C38.7331 11.0782 39.063 9.62118 39.1184 9.32417C39.3448 8.50546 39.1987 8.24275 39.0249 7.78166C38.9692 7.63072 38.9952 7.41575 38.8989 7.24824C38.6247 6.77085 38.3297 6.15053 38.1296 5.70744C37.9998 5.42529 37.7946 4.36189 37.7946 4.36189C37.6185 3.81903 37.7711 4.36217 37.7711 4.36217Z" fill="white"/>
</g>
<defs>
<clipPath id="clip0_1204_224">
<rect width="68.611" height="64" fill="white" transform="translate(0.5)"/>
</clipPath>
</defs>
</svg>

<svg xmlns="http://www.w3.org/2000/svg" width="70" height="64" fill="none"><g clip-path="url(#a)"><path fill="#fff" d="M37.771 4.362a3.676 3.676 0 1 1 3.49 2.986c-.081.022-.13.032-.201.094-.208.325.53.264.028 1.684 0 0-.003.155-.06.311-.039.545-.248 2.16-.278 3.02.106.124.136.185.125.487-.048.408-.142 1.41-.292 2.05-.128.55-.352.655-.533.79-.255 1.139-.322 2.082-.974 3.466-.06 1.048-.133 1.334-.353 1.846-.025 1.544.082 1.773-.96 4.218-.269 1.144-.013 1.935.27 3.123.291 1.22 1.097 1.73 1.217 2.981.282 2.945.211 4.95-.42 7.258l.55 1.306c.685.314 2.383 1.172 1.442 2.53 1.326.698 3.329 1.438 4.981 2.851.665.553 1.367 1.157 1.997 1.865 1.2.187 1.071.282 1.96.829 2.614 1.603 6.807 4.782 9.237 7.033.418.245.589.42.927.598.053.101.067.125.055.152-.116.294-.111.303-.216.537.13.145.375.28.521.407.137.043.137-.023.371-.08.305.285.683.515.819.502.413-.105.343-.02.692-.41.126-.13.337.001.337.001.131-.154.413-.46.79-.683.3-.176.872-.196.872-.196.192.001.156.198.14.262-.217.112-.676.235-.934.425-.562.58-1.001 1.364-1.001 1.364 1.13-.155 1.825.126 2.767.018.513-.03.892.003 1.432-.387 0 0 .518-.37.983-.565.45-.197.879-.092 1.276.197.28.316.45.318.023.764-.154.174-.377.368-.661.649-.499.492-1.17 1.15-1.865 1.693-.705.55-1.504 1.043-2.002 1.27-1.259.904-.962.668-1.951 1.564-.125.111-.456.311-.617.418-.39.256-.512.043-.766-.427 0 0-.117-.175-.309-.55-.21-.408-.367-.875-.303-.867-.235-.03-1.29-1.267-1.293-1.532-.223-.051-1.175-.973-1.209-1.15l-.843-.675c-.965.2-1.186-.4-3.734-2.207-.291-.005-.74-.162-1.384-.64-1.15-.92-3.908-3.004-4.376-3.242-.502-.256-1.102-.497-1.47-.801-.552-.102-.854-.16-1.13-.236-.281-.077-.538-.177-1.251-.273-1.162-.144-2.366-.625-3.513-1.199-.543-.257-1.016-.388-1.483-.59-1.049-.442-1.948-.84-2.645-1.002-.265-.026-1.529-.405-2.191-.792-.23-.118-.363-.231-.514-.266-.348-.08-.571.057-.729.11-.85.443-1.645.826-2.38 1.221-.685.366-1.315.746-1.983 1.13-.602.349-1.298.677-2.013 1.018 0 0-2.04 1.022-3.154 1.42-.966.789-2.942 2.154-4.148 2.83-.597.284-1.757 1.019-2.292 1.183-.305.246-1.393 1.022-2.244 1.662-.658.492-1.156.907-1.156.907-.382.343-.356.506-1.082.197-.202.166-.358.269-.488.364-.525.38-.57.29-.761.28-.366.316-.412.152-.732.517-.21.325.005.247-.438.405-.094.036-.138.149-.21.211-.356.294-.358 1.123-1.21 1.182-.495.352-.368.778-.746.76.023.365-.668.899-.792.897-1.088.375-1.164-.425-2.47.172-.169.078-.417.291-.743.353-.574.108-1.268-.005-1.692-.333-.666-.514-1.28-1.505-1.28-1.505-.211-.5-.088-.817.573-1.29.276-.175.327-.306.79-.338.23-.087.167.046.577-.101.238-.086.238-.025.717-.066.11-.074.264-.1.47-.167.38-.125.75-.264.75-.264s.096-.097.46-.062c.309-.127.625-.314.788-.372-.041-.488.011-.466.238-.662.282-.243.333-.204.543-.053.088-.051.131-.069.121-.143-.034-.254-.252-.374-.187-.935-.097-.225-.24-.502-.208-.67.046-.18.09-.267.2-.325.117-.062.154.022.217.092.111.13.202.514.202.514.039.433.173.994.602.678.252-.256.301-.939.817-.793l.367.32c.312-.294.327-.294.514-.411 0 0-.292-.296-.036-.526.175-.156.387-.267.763-.684 1.032-1.14 1.562-1.644 2.678-2.563 2.226-1.832 4.76-3.116 6.37-3.755.524-.666 1.035-1.109 2.2-1.22 1.384-2.339 4.036-4.427 4.645-4.76.495-.898.71-.803 1.358-.983.514-.411.63-.411.86-.841.224-.888-.515-3.259 1.37-3.379.4-.566.3-.43.747-.965a8 8 0 0 1-.509-1.905c-.015-.062-.748-.579-.54-1.253-.311-.371-.894-1.236-1.076-1.642-.084.002-.153-.03-.244-.042-.096-.015-.214-.01-.347-.021-.293.757-.613.814-1.135.98-.932 1.987-1.26 2.828-3.897 4.47-1.047 1.172-1.382 2.478-1.377 2.458-.18.387-.116.929-.021 1.22-.138.43-.102.472-.102.472.058.162.207.377.39.423.317.084.634.07.616.423-.043.441-.622.37-.896.32-1.055-.168-.722-.855-1.397-.626-.516.339-.71 1.336-1.553 1.207-.112-.074-.078-.292-.002-.45.118-.246.328-.45.203-.542q-.825.264-1.647.537c-.517.141-1.083-.116-.574-.456.236-.092.574-.207.99-.474 0 0 .215-.292-.196-.146-.45.16-1.113.26-1.588.208 0 0-.987-.13-1.113-.207-.128-.077-.245-.382.064-.38.39.003 1.368-.112 2.126-.314.366-.143 1.062-.554 1.453-.748 0 0 .423-.617.656-.738.389-.448.717-.712 1.061-1.17.337-.695.685-1.794 1.799-3.495.515-.785 1.155-1.698 1.96-2.515 0 0 .209-1.308 1.257-2.238.232-.545.583-1.187.93-1.78.134-.229.262-.427.39-.644.325-.51.666-1.46 1.933-1.61 0 0 .541-.4.75-.684.325-.278.25-.709.515-1.013-.404-.393-1.436-1.134-1.536-2.162a3.21 3.21 0 0 1 .942-2.654c.731-.731 1.503-1.097 2.44-1.041 1.17.173 1.39.56 1.763.945.358.364.49.13.642.556.981.26.927.146.918.868.151.203.404.392.4.814.33-.684.396-.81 1.277-1.564.209-.612.35-1.214.533-1.826.172-.566.386-1.148.551-1.587-.175-1.237.185-1.442.666-2.526-.085-.15-.067-.192-.03-.437.186-.717.478-1.665.652-2.284 0 0 .057-.246.312-.264.22-.783.55-2.24.605-2.537.227-.819.08-1.081-.093-1.542-.056-.151-.03-.366-.126-.534a19 19 0 0 1-.77-1.54c-.13-.283-.334-1.346-.334-1.346-.177-.543-.024 0-.024 0"/></g><defs><clipPath id="a"><path fill="#fff" d="M.5 0h68.611v64H.5z"/></clipPath></defs></svg>
